img/ibm_logo.svg

<?xml version="1.0" encoding="UTF-8"?>
 <!DOCTYPE svg PUBLIC "-//W3C//DTD SVG 1.1//EN"
   "http://www.w3.org/Graphics/SVG/1.1/DTD/svg11.dtd">
 <svg xmlns="http://www.w3.org/2000/svg" version="1.1"
   xmlns:xlink="http://www.w3.org/1999/xlink" width="1000" height="400">
  <path d="M 0,0 0,27.367 194.64844,27.367 194.64844,0 0,0 z M 222.22657,0 222.22657,27.367 499.60937,27.367 C 499.60936,27.367 471.27625,0 433.75,0 L 222.22657,0 z M 554.02344,0 554.02344,27.367 721.83594,27.367 711.875,0 554.02344,0 z M 842.14844,0 832.1875,27.367 998.47656,27.367 998.47656,0 842.14844,0 z M 0,53.22221 0,80.589202 194.64844,80.589202 194.64844,53.22221 0,53.22221 z M 222.22657,53.260975 222.22657,80.589202 531.79688,80.589202 C 531.79688,80.589214 528.18125,59.526386 521.875,53.260975 L 222.22657,53.260975 z M 554.02344,53.260975 554.02344,80.589202 740.23438,80.589202 731.01562,53.260975 554.02344,53.260975 z M 822.22656,53.260975 813.00781,80.589202 998.47656,80.589202 998.47656,53.260975 822.22656,53.260975 z M 55.937496,106.44442 55.937496,133.85017 140.23437,133.85017 140.23437,106.44442 55.937496,106.44442 z M 278.16407,106.44442 278.16407,133.85017 362.46093,133.85017 362.46093,106.44442 278.16407,106.44442 z M 444.45313,106.44442 444.45313,133.85017 528.75,133.85017 C 528.75001,133.85017 534.10156,119.37715 534.10156,106.44442 L 444.45313,106.44442 z M 609.96094,106.44442 609.96094,133.85017 759.41407,133.85017 749.45313,106.44442 609.96094,106.44442 z M 803.86719,106.44442 793.86719,133.85017 944.0625,133.85017 944.0625,106.44442 803.86719,106.44442 z M 55.937496,159.7054 55.937496,187.07238 140.23437,187.07238 140.23437,159.7054 55.937496,159.7054 z M 278.16407,159.7054 278.16407,187.07238 493.47657,187.07238 C 493.47658,187.07237 511.48781,173.0301 517.22656,159.7054 L 278.16407,159.7054 z M 609.96094,159.7054 609.96094,187.07238 694.25781,187.07238 694.25781,171.83835 699.60937,187.07238 854.02344,187.07238 859.76563,171.83835 859.76563,187.07238 944.0625,187.07238 944.0625,159.7054 785.82031,159.7054 777.42187,182.88593 768.98438,159.7054 609.96094,159.7054 z M 55.937496,212.92761 55.937496,240.29459 140.23437,240.29459 140.23437,212.92761 55.937496,212.92761 z M 278.16407,212.92761 278.16407,240.29459 517.22656,240.29459 C 511.48657,227.01331 493.47657,212.92761 493.47657,212.92761 L 278.16407,212.92761 z M 609.96094,212.92761 609.96094,240.29459 694.25781,240.29459 694.25781,212.92761 609.96094,212.92761 z M 709.57031,212.92761 719.76563,240.29459 835.54688,240.29459 845.23438,212.92761 709.57031,212.92761 z M 859.76563,212.92761 859.76563,240.29459 944.0625,240.29459 944.0625,212.92761 859.76563,212.92761 z M 55.937496,266.14982 55.937496,293.5168 140.23437,293.5168 140.23437,266.14982 55.937496,266.14982 z M 278.16407,266.14982 278.16407,293.5168 362.46093,293.5168 362.46093,266.14982 278.16407,266.14982 z M 444.45313,266.14982 444.45313,293.5168 534.10156,293.5168 C 534.10158,280.60147 528.75,266.14982 528.75,266.14982 L 444.45313,266.14982 z M 609.96094,266.14982 609.96094,293.5168 694.25781,293.5168 694.25781,266.14982 609.96094,266.14982 z M 728.71093,266.14982 738.59375,293.5168 816.21093,293.5168 826.17187,266.14982 728.71093,266.14982 z M 859.76563,266.14982 859.76563,293.5168 944.0625,293.5168 944.0625,266.14982 859.76563,266.14982 z M 1.52343,319.37203 1.52343,346.77778 196.17187,346.77778 196.17187,319.37203 1.52343,319.37203 z M 222.22657,319.37203 222.22657,346.77778 521.875,346.77778 C 528.18125,340.50245 531.79688,319.37203 531.79688,319.37203 L 222.22657,319.37203 z M 555.54687,319.37203 555.54687,346.77778 694.25781,346.77778 694.25781,319.37203 555.54687,319.37203 z M 747.89062,319.37203 758.04687,346.77778 797.53906,346.77778 807.07031,319.37203 747.89062,319.37203 z M 859.76563,319.37203 859.76563,346.77778 1000,346.77778 1000,319.37203 859.76563,319.37203 z M 1.52343,372.633 1.52343,400 196.17187,400 196.17187,372.633 1.52343,372.633 z M 222.22657,372.633 222.22657,399.96124 433.75,399.96124 C 471.27624,399.96122 499.60937,372.633 499.60937,372.633 L 222.22657,372.633 z M 555.54687,372.633 555.54687,400 694.25781,400 694.25781,372.633 555.54687,372.633 z M 767.14844,372.633 776.91407,399.92246 778.59375,399.96124 788.51563,372.633 767.14844,372.633 z M 859.76563,372.633 859.76563,400 1000,400 1000,372.633 859.76563,372.633 z" fill="#1f70c1" />
 </svg>

<svg xmlns="http://www.w3.org/2000/svg" width="1000" height="400"><path d="M0 0v27.367h194.648V0H0zm222.227 0v27.367h277.382S471.276 0 433.75 0H222.227zm331.796 0v27.367h167.813L711.875 0H554.023zm288.125 0l-9.96 27.367h166.289V0H842.148zM0 53.222V80.59h194.648V53.222H0zm222.227.039v27.328h309.57s-3.616-21.063-9.922-27.328H222.227zm331.796 0v27.328h186.211l-9.218-27.328H554.023zm268.204 0l-9.22 27.328h185.47V53.261h-176.25zm-766.29 53.183v27.406h84.297v-27.406H55.937zm222.227 0v27.406h84.297v-27.406h-84.297zm166.29 0v27.406h84.296s5.352-14.473 5.352-27.406h-89.649zm165.507 0v27.406h149.453l-9.96-27.406H609.96zm193.906 0l-10 27.406h150.196v-27.406H803.866zm-747.93 53.261v27.367h84.297v-27.367H55.937zm222.227 0v27.367h215.313s18.01-14.042 23.75-27.367H278.164zm331.797 0v27.367h84.297v-15.234l5.351 15.234h154.414l5.743-15.234v15.234h84.297v-27.367H785.82l-8.398 23.18-8.438-23.18H609.961zM55.937 212.928v27.367h84.297v-27.367H55.937zm222.227 0v27.367h239.063c-5.74-13.282-23.75-27.367-23.75-27.367H278.164zm331.797 0v27.367h84.297v-27.367H609.96zm99.61 0l10.195 27.367h115.78l9.688-27.367H709.57zm150.195 0v27.367h84.297v-27.367h-84.297zM55.937 266.15v27.367h84.297V266.15H55.937zm222.227 0v27.367h84.297V266.15h-84.297zm166.29 0v27.367h89.648c0-12.916-5.352-27.367-5.352-27.367h-84.297zm165.507 0v27.367h84.297V266.15H609.96zm118.75 0l9.883 27.367h77.617l9.96-27.367h-97.46zm131.055 0v27.367h84.297V266.15h-84.297zM1.523 319.372v27.406h194.649v-27.406H1.523zm220.704 0v27.406h299.648c6.306-6.276 9.922-27.406 9.922-27.406h-309.57zm333.32 0v27.406h138.71v-27.406h-138.71zm192.344 0l10.156 27.406h39.492l9.531-27.406h-59.18zm111.875 0v27.406H1000v-27.406H859.766zM1.523 372.633V400h194.649v-27.367H1.523zm220.704 0v27.328H433.75c37.526 0 65.86-27.328 65.86-27.328H222.226zm333.32 0V400h138.71v-27.367h-138.71zm211.601 0l9.766 27.29 1.68.038 9.922-27.328h-21.368zm92.618 0V400H1000v-27.367H859.766z" fill="#1f70c1"/></svg>
